X:1
T:Title
%%score { 1 | ( 2 3 ) }
L:1/8
Q:1/4=90
M:2/4
K:A
V:1 treble nm="Grand Piano"
V:2 bass 
V:3 bass 
V:1
 [CA][CA] [CA][CA] | [EG][DF] [CE]2 | FF ED | C2 E2 | [CA][CA] [CA][CA] | [EG][DF] [CE]2 | FB AG | %7
w: J.~H.~Rosecrans * * *|||||||
 [CA]4 | B2 c2 | A4 | [FA][FA] [EG][DF] | [CE][B,D] [A,C][B,D] | [CE]2 [CA]2 | c4 | [FB][Fd] cB | %15
w: ||||||||
 [CA]4 |] %16
w: |
V:2
 [A,,E,][A,,E,] [A,,E,][A,,E,] | [A,,F,][A,,G,] [A,,A,]2 | [D,A,D][D,A,D] [E,A,C][E,B,] | A,2 C2 | %4
 [A,,E,][A,,E,] [A,,E,][A,,E,] | [A,,F,][A,,G,] [A,,A,]2 | [D,A,D][D,F,D] [E,C][E,B,] | [A,,E,]4 | %8
 [E,G,E]2 [E,G,E]2 | [F,A,C]4 | [D,A,][D,A,] [D,A,][D,A,] | [A,,A,][A,,E,] [A,,E,]2 | %12
 [A,,A,]2 [A,,E,]2 | [A,E]4 | [D,A,][D,A,] [E,A,E][E,D] | [A,,E,]4 |] %16
V:3
 x4 | x4 | x4 | [A,,E,]4 | x4 | x4 | x4 | x4 | x4 | x4 | x4 | x4 | x4 | x4 | x4 | x4 |] %16

